!!!SOCIAL_FUNCTION:	bird dance songs
!!!PDT:	1956
!!!OTL: No_99_Stomp_Dance_Song_(a).krn
!!!LANG: Non-Tone
!!!LING_GROUP: Muskogean
!!!REG: Florida
**kern
*staff1
=1-
*clefF4
*k[b-e-a-d-]
*M3/4
2r
(8F\L
8E-\J)
=2
4.A-\
8r
8F\L
8E-\J
=3||
*M2/4
4A-\
8F\L
8E-\J
=4||
*M3/4
4A-\
4r
8F\L
8E-\J
=5||
*M2/4
4A-\
(8.c\L
16A-\Jk)
=6
4.A-\
8r
=7
(8.c\L
16A-\Jk)
4A-\
=8||
*M3/4
(8.c\L
16A-\Jk)
4A-\
4r
=9
(8.c\L
16A-\Jk)
4A-\
12A-\L
12A-\
12A-\J
=10||
*M2/4
2A-\
=11||
*M3/4
8A-\L
8A-\J
4A-\
12A-\L
24A-\L
24c\J
12A-\J
=12||
*M2/4
4A-\
4r
=13
4A-\
8A-\L
8A-\J
=14
4A-\
8A-\L
[8A-\J
=15
4A-\]
4r
=16||
*M3/4
4A-\
8A-\L
8A-\J
8A-\L
8c\J
=17||
*M2/4
(16c\LK
8.A-\J)
4A-\
=18||
*M3/4
8A-\L
8c\J
(8c\L
8A-\J)
8A-\L
8c\J
=19||
*M2/4
(16c\LK
8.A-\J)
8A-\
8r
=20
4A-\
8r
8c\
=21||
*M3/4
8A-\L
8c\J
8c\L
8A-\J
12c\L
12c\
12c\J
=22
2A-\
4r
=23
12c\L
12c\
12c\J
4A-\
12c\L
12c\
12c-\J
=24
2c\
4r
=25
12c\L
12c\
12c\J
4c\
12c\L
12c\
12A-\J
=26
2c\
4r
=27
8c\L
8A-\J
4c\
12c\L
12c\
12c\J
=28
2c\
4r
*-
